X:1
T:Jesus, Savior, We Implore Thee
T:Arthur E. Johnstone
T:Jesus, Savior, We Implore Thee
T:Public Domain
T:Public Domain
C:Arthur E. Johnstone
Z:Public Domain
%%score ( 1 2 ) ( 3 4 )
L:1/8
M:4/4
K:F
V:1 treble 
V:2 treble 
V:3 bass 
V:4 bass 
V:1
 [FA]2 G2 F2 C2 | D2 [DF]2 [EG]2 [DFA]2 | [DGB]2 ([DA]2 [B,DG]2) [B,D]2 | E2 [EG]2 [FA]2 [GB]2 | %4
w: 1.~Je- sus, Sav- ior,|im- plore Thee, Hear|child- ren now be-|Thee, For Thy good-|
w: 2.~Meek- ly now Thy|re- ceiv- ing, In|pre- cious name be-|ing, Earth- ly plea-|
w: 3.~In our weak- ness,|be- friend us, From|tempt- er’s power de-|us, May the shin-|
 c2 A2 [DFG]2 [Ed]2 | c2 A2 [EG]2 [DF]2 | E2 [EG]2 A2 [Ac]2 | (A2 z) d [Ec]4 | %8
w: a- dore Thee, Still|hearts in safe- ty|Thy mer- cy we|ing, Thou in|
w: ly leav- ing, Help|Lord, to fol- low|ing, trust- ing, ne’er|ing, All to|
w: at- tend us When|wake, and when we|ful in Thy strength|ing, Joy- ful|
 D2 [^CE]2 [DF]2 [D-B]2 | A2 G2 F2 E2 | D2 [^CE]2 [DF]2 [Fd]2 | c2 B2 A2 G2 x2 | %12
w: in- ter- ced- ing;|us where Thy flocks|feed- ing, Gen- tle|herd, lead Thy sheep.|
w: faith re- sign- ing,|Thy gra- cious arms|clin- ing, Thy dis-|ples we would be.|
w: love con- fid- ing;|the liv- ing streams|glid- ing, Bless- èd|ior, lead Thy sheep.|
 F2 [EG]2 [FA]2 [CE]2 x2 | D2 [^CE]2 [B,DF]2 [DFG]2 | [CFA]2 G2 F2 [B,C]2 | %15
w: |||
w: |||
w: |||
 [A,C-F]2 [B,C-G]2 [A,CF]8 |] %16
w: |
w: |
w: |
V:2
 [A,-C]8 | A,8 | B,4 x4 | [B,C]4 C4 | [CF]4 x4 | F4 C4 | C4 D4 | e3 G4 x | B,6 x2 | D4 ^C4 | %10
w: we|Thy|fore|ness we|our|keep. While|are plead-|Heav’n art|Lead|* are|
w: Word|Thy|liev-|sures glad-|us,|Thee. Hop-|re- pin-|Thee by|In|* re-|
w: Lord,|the|fend|ing ones|we|sleep. Peace-|a- bid-|in Thy|Where|* are|
 D2 x6 | F4 E4 x2 | D6 x4 | B,4 x4 | x2 C4 x2 | x12 |] %16
w: Shep-||||||
w: ci-||||||
w: Sav-||||||
V:3
 [F,,C,F,]8- | [F,,C,F,]8 | [F,,D,G,]8 | [F,,C,G,]4 C2 B,2 | A,4 B,4 | A,2 C2 B,2 A,2 | %6
 [C,G,]4 [A,,^F,C]4 | [G,,G,=B,]4 C,2 C,,2 | G,6 F,2 | A,,2 z2 A,2 G,2 | F,4 B,2 A,2 | %11
 C,2 z2 C2 B,2 x2 | D,4 z2 G,2 x2 | B,,6 =B,,2 | F,2 B,2 A,2 G,2 | [F,,C,]12 |] %16
V:4
 x8 | x8 | x8 | x4 C,4 | C,8- | C,8 | x8 | x4 [G,C]4 | G,,8 | E,4 A,,4 | B,,8 | G,4 C,6 | %12
 A,6 A,,4 | F,8- | C,8- | x12 |] %16

